src/assets/icons/objects-column.svg

<svg width="14" height="14" viewBox="0 0 14 14" fill="none" xmlns="http://www.w3.org/2000/svg">
<g id="objects-column">
<g clip-path="url(#clip0_295_4735)">
<path id="Vector" fill-rule="evenodd" clip-rule="evenodd" d="M1.4 0C0.626801 0 0 0.626801 0 1.4V6.2C0 6.9732 0.626802 7.6 1.4 7.6H4.6C5.3732 7.6 6 6.9732 6 6.2V1.4C6 0.626801 5.3732 0 4.6 0H1.4ZM1.2 1.4C1.2 1.28954 1.28954 1.2 1.4 1.2H4.6C4.71046 1.2 4.8 1.28954 4.8 1.4V6.2C4.8 6.31046 4.71046 6.4 4.6 6.4H1.4C1.28954 6.4 1.2 6.31046 1.2 6.2V1.4ZM1.4 9.6C0.626801 9.6 0 10.2268 0 11V12.6C0 13.3732 0.626802 14 1.4 14H4.6C5.3732 14 6 13.3732 6 12.6V11C6 10.2268 5.3732 9.6 4.6 9.6H1.4ZM1.2 11C1.2 10.8895 1.28954 10.8 1.4 10.8H4.6C4.71046 10.8 4.8 10.8895 4.8 11V12.6C4.8 12.7105 4.71046 12.8 4.6 12.8H1.4C1.28954 12.8 1.2 12.7105 1.2 12.6V11ZM8 7.8C8 7.0268 8.6268 6.4 9.4 6.4H12.6C13.3732 6.4 14 7.0268 14 7.8V12.6C14 13.3732 13.3732 14 12.6 14H9.4C8.6268 14 8 13.3732 8 12.6V7.8ZM9.4 7.6C9.28954 7.6 9.2 7.68954 9.2 7.8V12.6C9.2 12.7105 9.28954 12.8 9.4 12.8H12.6C12.7105 12.8 12.8 12.7105 12.8 12.6V7.8C12.8 7.68954 12.7105 7.6 12.6 7.6H9.4ZM9.4 0C8.6268 0 8 0.626801 8 1.4V3C8 3.7732 8.6268 4.4 9.4 4.4H12.6C13.3732 4.4 14 3.7732 14 3V1.4C14 0.626801 13.3732 0 12.6 0H9.4ZM9.2 1.4C9.2 1.28954 9.28954 1.2 9.4 1.2H12.6C12.7105 1.2 12.8 1.28954 12.8 1.4V3C12.8 3.11046 12.7105 3.2 12.6 3.2H9.4C9.28954 3.2 9.2 3.11046 9.2 3V1.4Z" fill="black"/>
</g>
</g>
<defs>
<clipPath id="clip0_295_4735">
<rect width="14" height="14" fill="white"/>
</clipPath>
</defs>
</svg>

<svg xmlns="http://www.w3.org/2000/svg" fill="none" viewBox="0 0 14 14"><g clip-path="url(#a)"><path fill="#000" fill-rule="evenodd" d="M1.4 0A1.4 1.4 0 0 0 0 1.4v4.8a1.4 1.4 0 0 0 1.4 1.4h3.2A1.4 1.4 0 0 0 6 6.2V1.4A1.4 1.4 0 0 0 4.6 0zm-.2 1.4c0-.11.09-.2.2-.2h3.2c.11 0 .2.09.2.2v4.8a.2.2 0 0 1-.2.2H1.4a.2.2 0 0 1-.2-.2zm.2 8.2A1.4 1.4 0 0 0 0 11v1.6A1.4 1.4 0 0 0 1.4 14h3.2A1.4 1.4 0 0 0 6 12.6V11a1.4 1.4 0 0 0-1.4-1.4zM1.2 11c0-.11.09-.2.2-.2h3.2c.11 0 .2.09.2.2v1.6a.2.2 0 0 1-.2.2H1.4a.2.2 0 0 1-.2-.2zM8 7.8a1.4 1.4 0 0 1 1.4-1.4h3.2A1.4 1.4 0 0 1 14 7.8v4.8a1.4 1.4 0 0 1-1.4 1.4H9.4A1.4 1.4 0 0 1 8 12.6zm1.4-.2a.2.2 0 0 0-.2.2v4.8c0 .11.09.2.2.2h3.2a.2.2 0 0 0 .2-.2V7.8a.2.2 0 0 0-.2-.2zm0-7.6A1.4 1.4 0 0 0 8 1.4V3a1.4 1.4 0 0 0 1.4 1.4h3.2A1.4 1.4 0 0 0 14 3V1.4A1.4 1.4 0 0 0 12.6 0zm-.2 1.4c0-.11.09-.2.2-.2h3.2c.11 0 .2.09.2.2V3a.2.2 0 0 1-.2.2H9.4a.2.2 0 0 1-.2-.2z" clip-rule="evenodd"/></g><defs><clipPath id="a"><path fill="#fff" d="M0 0h14v14H0z"/></clipPath></defs></svg>
